X: 182
T: Boys of the Town
T: Jig, G
L: 1/16
M: 6/8
K: G
|: D2| G2F2G2 G2B2d2| e2d2B2 d2B2A2| G2F2G2 G2B2d2| e2d2B2 A2F2D2| 
G2F2G2 G2B2d2| e2d2B2 g2f2g2| e2d2B2 A2G2A2| B2G2G2 G4:| 
|: B2| d2e2f2 g2f2g2| a2f2d2 e2d2B2| d2e2f2 g2f2g2| a2f2d2 e4f2| 
[1 d2e2f2 g2f2g2| a2f2d2 e2f2g2| e2d2B2 A2G2A2| B2G2G2 G4:|  
[2 d2e2f2 g2a2b2| f2g2a2 e2f2g2| e2d2B2 A2G2A2| B2G2G2 G4|]
D: Wendy MacIsaac, That's What You Get, WMT004
D: The Beatons of Mabou, Rounder 7011
